outputs/icons/image/camera_shutter_round.svg

<svg xmlns="http://www.w3.org/2000/svg" width="1200" height="1200" fill="none"><g clip-path="url(#a)"><path fill="#000" d="M690.5 143c8.5-15 0-35-17.5-37-131-18.5-265 14-372 93-9.501 7.5-12.5 21.5-6 32.5l150.5 261c9.5 16.5 33.5 16.5 43.5 0zM1065 416.5c-49-123.5-146-223-267.5-275-11.5-5-25 0-31.5 11L615.5 413c-9.5 16 2.5 37 22 37h404c17.5 0 30-17.5 23.5-33.5m3.5 83.5h-310c-19 0-31.5 21-21.5 37.5L950 907c8.5 15 30 17.5 41 4 87-109 124-251.5 102.5-389.5-1.5-12.5-12.5-21.5-25-21.5M209 289.5C122.5 399 84.999 540.5 106.499 679c1.5 12 12.5 21 25 21H441.5c18.999 0 31.499-21 21.5-37.5l-213-369c-9.001-15-30.5-17.5-41-4m-74 494c49 123.5 145.999 223 267.499 275 11.501 5 25 0 31.501-11L584.5 787c9.5-16.5-2.5-37.5-21.5-37.5H158.499c-17.499.5-29.999 18-23.499 34m391.5 311c131 18.5 265-14 372-93 10-7.5 13-22 6.5-33l-150.5-261C745 691 721 691 711 707.5L509 1057c-8.5 15 .5 35 17.5 37.5"/></g><defs><clipPath id="a"><path fill="#fff" d="M0 0h1200v1200H0z"/></clipPath></defs></svg>

<svg width="1200" height="1200" viewBox="0 0 1200 1200" fill="none" xmlns="http://www.w3.org/2000/svg"><g clip-path="url(#clip0_238_2761)"><path d="M690.5 143C699 128 690.5 108 673 106C542 87.5 408 120 301 199C291.499 206.5 288.5 220.5 295 231.5L445.5 492.5C455 509 479 509 489 492.5L690.5 143ZM1065 416.5C1016 293 919 193.5 797.5 141.5C786 136.5 772.5 141.5 766 152.5L615.5 413C606 429 618 450 637.5 450H1041.5C1059 450 1071.5 432.5 1065 416.5ZM1068.5 500H758.5C739.5 500 727 521 737 537.5L950 907C958.5 922 980 924.5 991 911C1078 802 1115 659.5 1093.5 521.5C1092 509 1081 500 1068.5 500ZM209 289.5C122.5 399 84.999 540.5 106.499 679C107.999 691 118.999 700 131.499 700H441.5C460.499 700 472.999 679 463 662.5L250 293.5C240.999 278.5 219.5 276 209 289.5ZM135 783.5C184 907 280.999 1006.5 402.499 1058.5C414 1063.5 427.499 1058.5 434 1047.5L584.5 787C594 770.5 582 749.5 563 749.5H158.499C141 750 128.5 767.5 135 783.5ZM526.5 1094.5C657.5 1113 791.5 1080.5 898.5 1001.5C908.5 994 911.5 979.5 905 968.5L754.5 707.5C745 691 721 691 711 707.5L509 1057C500.5 1072 509.5 1092 526.5 1094.5Z" fill="black"/></g><defs><clipPath id="clip0_238_2761"><path width="24" fill="white" d="M0 0H1200V1200H0V0z"/></clipPath></defs></svg>
